X:17
T:Jubilate Deo
C:J.P. Lcot
%%staves {(1 2) (3 4)}
M:6/4
L:1/4
K:D
V:1
zDD|A2AB3|A3zFF|A2AG2F|E3EAA|G2FE3|D3|]
V:2
zDD|C2CD3|D3zDD|C2DB,CD|D3CDD|B,3/C/DDC2|D3|]
V:3
zF,F,|E,2E,G,3|F,3zB,B,|A,2A,E,2A,|A,3A,A,A,|E,2A,B,A,2|F,3|]
V:4
zD,D,|A,,2A,,G,,3/A,,/B,,/C,/|D,3zB,,B,,|F,2F,E,2D,|A,3A,F,F,|E,2D,G,,A,,2|D,3|]
